Newaita-dark/actions/24/system-suspend-hibernate.svg

<svg height="24" viewBox="0 0 24 24" width="24" xmlns="http://www.w3.org/2000/svg"><g fill="#78909c"><path d="m11.90625 2.171875c-5.496094 0-9.921875 4.425781-9.921875 9.921875 0 5.5 4.425781 9.925781 9.921875 9.925781 5.5 0 9.925781-4.425781 9.925781-9.925781 0-5.496094-4.425781-9.921875-9.925781-9.921875zm0 1.984375c4.398438 0 7.9375 3.539062 7.9375 7.9375s-3.539062 7.9375-7.9375 7.9375-7.9375-3.539062-7.9375-7.9375 3.539062-7.9375 7.9375-7.9375zm0 0"/><path d="m12.898438 8.125v7.9375c0 .277344-.222657.496094-.496094.496094h-.992188c-.273437 0-.496094-.21875-.496094-.496094v-7.9375c0-.273438.222657-.496094.496094-.496094h.992188c.273437 0 .496094.222656.496094.496094zm0 0"/><path d="m15.875 13.085938h-7.9375c-.273438 0-.496094-.222657-.496094-.496094v-.992188c0-.273437.222656-.496094.496094-.496094h7.9375c.277344 0 .496094.222657.496094.496094v.992188c0 .273437-.21875.496094-.496094.496094zm0 0"/><path d="m14.011719 15.601562-5.613281-5.613281c-.191407-.191406-.191407-.507812 0-.699219l.703124-.703124c.191407-.191407.507813-.191407.699219 0l5.613281 5.613281c.195313.195312.195313.507812 0 .703125l-.699218.699218c-.195313.195313-.507813.195313-.703125 0zm0 0"/><path d="m8.398438 14.199219 5.613281-5.613281c.195312-.191407.507812-.191407.703125 0l.699218.703124c.195313.191407.195313.507813 0 .699219l-5.613281 5.613281c-.191406.195313-.507812.195313-.699219 0l-.703124-.699218c-.191407-.195313-.191407-.507813 0-.703125zm0 0"/></g></svg>

<svg xmlns="http://www.w3.org/2000/svg" xmlns:xlink="http://www.w3.org/1999/xlink" width="24px" height="24px" viewBox="0 0 24 24" version="1.1">
<g id="surface1">
<path style=" stroke:none;fill-rule:nonzero;fill:rgb(47.058824%,56.470591%,61.176473%);fill-opacity:1;" d="M 11.90625 2.171875 C 6.410156 2.171875 1.984375 6.597656 1.984375 12.09375 C 1.984375 17.59375 6.410156 22.019531 11.90625 22.019531 C 17.40625 22.019531 21.832031 17.59375 21.832031 12.09375 C 21.832031 6.597656 17.40625 2.171875 11.90625 2.171875 Z M 11.90625 4.15625 C 16.304688 4.15625 19.84375 7.695312 19.84375 12.09375 C 19.84375 16.492188 16.304688 20.03125 11.90625 20.03125 C 7.507812 20.03125 3.96875 16.492188 3.96875 12.09375 C 3.96875 7.695312 7.507812 4.15625 11.90625 4.15625 Z M 11.90625 4.15625 "/>
<path style=" stroke:none;fill-rule:nonzero;fill:rgb(47.058824%,56.470591%,61.176473%);fill-opacity:1;" d="M 12.898438 8.125 L 12.898438 16.0625 C 12.898438 16.339844 12.675781 16.558594 12.402344 16.558594 L 11.410156 16.558594 C 11.136719 16.558594 10.914062 16.339844 10.914062 16.0625 L 10.914062 8.125 C 10.914062 7.851562 11.136719 7.628906 11.410156 7.628906 L 12.402344 7.628906 C 12.675781 7.628906 12.898438 7.851562 12.898438 8.125 Z M 12.898438 8.125 "/>
<path style=" stroke:none;fill-rule:nonzero;fill:rgb(47.058824%,56.470591%,61.176473%);fill-opacity:1;" d="M 15.875 13.085938 L 7.9375 13.085938 C 7.664062 13.085938 7.441406 12.863281 7.441406 12.589844 L 7.441406 11.597656 C 7.441406 11.324219 7.664062 11.101562 7.9375 11.101562 L 15.875 11.101562 C 16.152344 11.101562 16.371094 11.324219 16.371094 11.597656 L 16.371094 12.589844 C 16.371094 12.863281 16.152344 13.085938 15.875 13.085938 Z M 15.875 13.085938 "/>
<path style=" stroke:none;fill-rule:nonzero;fill:rgb(47.058824%,56.470591%,61.176473%);fill-opacity:1;" d="M 14.011719 15.601562 L 8.398438 9.988281 C 8.207031 9.796875 8.207031 9.480469 8.398438 9.289062 L 9.101562 8.585938 C 9.292969 8.394531 9.609375 8.394531 9.800781 8.585938 L 15.414062 14.199219 C 15.609375 14.394531 15.609375 14.707031 15.414062 14.902344 L 14.714844 15.601562 C 14.519531 15.796875 14.207031 15.796875 14.011719 15.601562 Z M 14.011719 15.601562 "/>
<path style=" stroke:none;fill-rule:nonzero;fill:rgb(47.058824%,56.470591%,61.176473%);fill-opacity:1;" d="M 8.398438 14.199219 L 14.011719 8.585938 C 14.207031 8.394531 14.519531 8.394531 14.714844 8.585938 L 15.414062 9.289062 C 15.609375 9.480469 15.609375 9.796875 15.414062 9.988281 L 9.800781 15.601562 C 9.609375 15.796875 9.292969 15.796875 9.101562 15.601562 L 8.398438 14.902344 C 8.207031 14.707031 8.207031 14.394531 8.398438 14.199219 Z M 8.398438 14.199219 "/>
</g>
</svg>
